src/assets/bell.svg

<svg width="42" height="42" viewBox="0 0 42 42" fill="none" xmlns="http://www.w3.org/2000/svg">
<path d="M25.3748 37.6252C25.3748 40.0417 23.4166 42 21 42C18.585 42 16.6252 40.0417 16.6252 37.6252H25.3748Z" fill="white"/>
<path d="M10.5 22.3293C10.5 27.2753 8.49397 31.7562 5.25 35.0002H36.75C33.506 31.7562 31.5 27.2753 31.5 22.3293V17.4998C31.5 14.8066 30.4762 12.359 28.8083 10.5H29.7502C32.6487 10.5 35.0002 8.14853 35.0002 5.25C35.0002 2.35148 32.6487 0 29.7502 0C28.3007 0 26.9881 0.588 26.0384 1.53825L21 6.82553L15.9616 1.53825C15.0113 0.588 13.6988 0 12.2498 0C9.3513 0 6.99983 2.35148 6.99983 5.25C6.99983 8.14853 9.3513 10.5 12.2498 10.5H13.1901C11.5238 12.3596 10.5 14.8066 10.5 17.4998V22.3293ZM28.5726 3.95115C28.7044 3.82147 29.1197 3.50018 29.7502 3.50018C30.7157 3.50018 31.5 4.2861 31.5 5.25C31.5 6.2139 30.7157 6.99983 29.7502 6.99983H25.6694L28.5726 3.95115ZM10.5 5.25C10.5 4.2861 11.2843 3.50018 12.2498 3.50018C12.8804 3.50018 13.2956 3.82147 13.4274 3.95115L16.3306 7.00035H12.2498C11.2843 6.99983 10.5 6.2139 10.5 5.25Z" fill="white"/>
</svg>

<svg width="42" height="42" fill="none" xmlns="http://www.w3.org/2000/svg"><path d="M25.375 37.625a4.374 4.374 0 1 1-8.75 0h8.75ZM10.5 22.33c0 4.945-2.006 9.426-5.25 12.67h31.5a17.866 17.866 0 0 1-5.25-12.67V17.5c0-2.693-1.024-5.141-2.692-7h.942A5.251 5.251 0 0 0 35 5.25a5.251 5.251 0 0 0-8.962-3.712L21 6.826l-5.038-5.288A5.251 5.251 0 1 0 12.25 10.5h.94a10.453 10.453 0 0 0-2.69 7v4.83ZM28.573 3.95c.131-.13.547-.45 1.177-.45.966 0 1.75.785 1.75 1.749 0 .964-.784 1.75-1.75 1.75h-4.08l2.903-3.049ZM10.5 5.25c0-.964.784-1.75 1.75-1.75.63 0 1.046.321 1.177.451l2.904 3.05H12.25C11.284 7 10.5 6.213 10.5 5.25Z" fill="#fff"/></svg>
